X: 1
T: Big Scioty - G
M: 4/4
L: 1/8
R: reel
K: Gmaj
DE|:"G"G2GB AGAc|BGGF G2DE|G2GB AGAc|B2G2 G2DE|
|:"G"g2gf efge|"D"gaag a4|abag fedB|"Em"e2ee e2eg|f2eg f2ed|

